svgs/session.svg

<svg width="24" height="24" viewBox="0 0 24 24" fill="none" xmlns="http://www.w3.org/2000/svg">
<path fill-rule="evenodd" clip-rule="evenodd" d="M8.25604 2C5.35725 2 3 4.37319 3 7.29015C3 9.35626 4.11525 11.2615 5.91079 12.2631L7.88206 13.3625H7.29114C4.92433 13.3625 3 15.2998 3 17.6812C3 20.0625 4.9243 22 7.29114 22H15.744C18.6429 22 21 19.6268 21 16.7098C21 14.6437 19.8847 12.7385 18.0893 11.737L16.1179 10.6375H16.709C19.0757 10.6375 21 8.70026 21 6.31884C21 3.93749 19.0757 2 16.709 2H8.25604ZM5.13086 7.37369C5.08965 5.61009 6.5676 4.14301 8.34681 4.14301L16.6324 4.14305C17.8148 4.14305 18.8108 5.05514 18.8674 6.2086C18.9288 7.45824 17.9356 8.49445 16.7082 8.49445L11.9368 8.49526C11.3821 8.49535 10.9361 8.94818 10.9359 9.5033L10.9352 12.6152L6.94326 10.3886C5.8492 9.77838 5.16017 8.62869 5.13086 7.37369ZM13.065 14.4973V11.3849L17.0568 13.6113C18.1508 14.2215 18.8399 15.3713 18.8691 16.6262C18.9104 18.3898 17.4325 19.8569 15.6532 19.8569H7.36752C6.18515 19.8569 5.18915 18.9448 5.13257 17.7914C5.07123 16.5417 6.06373 15.5055 7.2911 15.5055H12.0629C12.6167 15.5055 13.065 15.0538 13.065 14.4973Z" fill="black"/>
</svg>

<svg xmlns="http://www.w3.org/2000/svg" viewBox="0 0 24 24"><path d="M8.256 2C5.357 2 3 4.373 3 7.29a5.694 5.694 0 0 0 2.91 4.973l1.972 1.1h-.59C4.923 13.363 3 15.3 3 17.68 3 20.062 4.924 22 7.291 22h8.453C18.643 22 21 19.627 21 16.71a5.693 5.693 0 0 0-2.91-4.973l-1.972-1.1h.591C19.076 10.638 21 8.7 21 6.32 21 3.937 19.076 2 16.709 2zM5.131 7.374C5.09 5.61 6.568 4.143 8.347 4.143h8.285c1.183 0 2.179.912 2.235 2.066a2.173 2.173 0 0 1-2.159 2.285l-4.771.001c-.555 0-1 .453-1.001 1.008v3.112L6.942 10.39A3.547 3.547 0 0 1 5.13 7.375m7.934 7.123v-3.112l3.992 2.226a3.547 3.547 0 0 1 1.812 3.015c.041 1.764-1.436 3.23-3.216 3.23H7.368c-1.183 0-2.179-.911-2.235-2.065a2.172 2.172 0 0 1 2.158-2.286h4.772c.554 0 1.002-.451 1.002-1.008"/></svg>
